assets/img/podcast/listen/google-podcasts.svg

<svg xmlns="http://www.w3.org/2000/svg" width="100" height="30" fill="none" viewBox="0 0 100 30"><g clip-path="url(#clip0)"><rect width="100" height="30" fill="#E6E6E6"/><g filter="url(#filter0_d)"><path fill="#FAB908" d="M14.75 11.3636V14.3943V15.6057V18.6364H17.25V15.6057V14.3943V11.3636H14.75Z"/><path fill="#0066D9" d="M7.25 15.5682C7.94036 15.5682 8.5 15.0085 8.5 14.3182C8.5 13.6278 7.94036 13.0682 7.25 13.0682C6.55964 13.0682 6 13.6278 6 14.3182C6 15.0085 6.55964 15.5682 7.25 15.5682Z"/><path fill="#0066D9" d="M7.25 16.9318C7.94036 16.9318 8.5 16.3722 8.5 15.6818C8.5 14.9915 7.94036 14.4318 7.25 14.4318C6.55964 14.4318 6 14.9915 6 15.6818C6 16.3722 6.55964 16.9318 7.25 16.9318Z"/><path fill="#0066D9" d="M8.5 14.3182H6V15.6818H8.5V14.3182Z"/><path fill="#4285F4" d="M24.75 16.9318C25.4404 16.9318 26 16.3722 26 15.6818C26 14.9915 25.4404 14.4318 24.75 14.4318C24.0596 14.4318 23.5 14.9915 23.5 15.6818C23.5 16.3722 24.0596 16.9318 24.75 16.9318Z"/><path fill="#4285F4" d="M24.75 15.5682C25.4404 15.5682 26 15.0085 26 14.3182C26 13.6278 25.4404 13.0682 24.75 13.0682C24.0596 13.0682 23.5 13.6278 23.5 14.3182C23.5 15.0085 24.0596 15.5682 24.75 15.5682Z"/><path fill="#4285F4" d="M23.5 15.6818H26V14.3182H23.5V15.6818Z"/><path fill="#EA4335" d="M11.5682 19.6591C12.2585 19.6591 12.8182 19.0994 12.8182 18.4091C12.8182 17.7187 12.2585 17.1591 11.5682 17.1591C10.8778 17.1591 10.3182 17.7187 10.3182 18.4091C10.3182 19.0994 10.8778 19.6591 11.5682 19.6591Z"/><path fill="#EA4335" d="M11.5682 21.0227C12.2585 21.0227 12.8182 20.4631 12.8182 19.7727C12.8182 19.0824 12.2585 18.5227 11.5682 18.5227C10.8778 18.5227 10.3182 19.0824 10.3182 19.7727C10.3182 20.4631 10.8778 21.0227 11.5682 21.0227Z"/><path fill="#EA4335" d="M12.8182 18.4091H10.3182V19.7727H12.8182V18.4091Z"/><path fill="#EA4335" d="M11.5682 11.4773C12.2585 11.4773 12.8182 10.9176 12.8182 10.2273C12.8182 9.53691 12.2585 8.97726 11.5682 8.97726C10.8778 8.97726 10.3182 9.53691 10.3182 10.2273C10.3182 10.9176 10.8778 11.4773 11.5682 11.4773Z"/><path fill="#EA4335" d="M11.5682 15.9091C12.2585 15.9091 12.8182 15.3494 12.8182 14.6591C12.8182 13.9687 12.2585 13.4091 11.5682 13.4091C10.8778 13.4091 10.3182 13.9687 10.3182 14.6591C10.3182 15.3494 10.8778 15.9091 11.5682 15.9091Z"/><path fill="#EA4335" d="M12.8182 10.2273H10.3182V14.6875H12.8182V10.2273Z"/><path fill="#34A853" d="M20.4318 12.8409C21.1222 12.8409 21.6818 12.2813 21.6818 11.5909C21.6818 10.9006 21.1222 10.3409 20.4318 10.3409C19.7415 10.3409 19.1818 10.9006 19.1818 11.5909C19.1818 12.2813 19.7415 12.8409 20.4318 12.8409Z"/><path fill="#34A853" d="M20.4318 11.4773C21.1222 11.4773 21.6818 10.9176 21.6818 10.2273C21.6818 9.53691 21.1222 8.97726 20.4318 8.97726C19.7415 8.97726 19.1818 9.53691 19.1818 10.2273C19.1818 10.9176 19.7415 11.4773 20.4318 11.4773Z"/><path fill="#34A853" d="M19.1818 11.5909H21.6818V10.2273H19.1818V11.5909Z"/><path fill="#FAB908" d="M16 8.86365C16.6904 8.86365 17.25 8.304 17.25 7.61365C17.25 6.92329 16.6904 6.36365 16 6.36365C15.3096 6.36365 14.75 6.92329 14.75 7.61365C14.75 8.304 15.3096 8.86365 16 8.86365Z"/><path fill="#FAB908" d="M16 7.5C16.6904 7.5 17.25 6.94036 17.25 6.25C17.25 5.55964 16.6904 5 16 5C15.3096 5 14.75 5.55964 14.75 6.25C14.75 6.94036 15.3096 7.5 16 7.5Z"/><path fill="#FAB908" d="M14.75 7.61365H17.25V6.25001H14.75V7.61365Z"/><path fill="#FAB908" d="M16 25C16.6904 25 17.25 24.4404 17.25 23.75C17.25 23.0596 16.6904 22.5 16 22.5C15.3096 22.5 14.75 23.0596 14.75 23.75C14.75 24.4404 15.3096 25 16 25Z"/><path fill="#FAB908" d="M16 23.6364C16.6904 23.6364 17.25 23.0767 17.25 22.3864C17.25 21.696 16.6904 21.1364 16 21.1364C15.3096 21.1364 14.75 21.696 14.75 22.3864C14.75 23.0767 15.3096 23.6364 16 23.6364Z"/><path fill="#FAB908" d="M14.75 23.75H17.25V22.3864H14.75V23.75Z"/><path fill="#34A853" d="M20.4318 21.0227C21.1222 21.0227 21.6818 20.4631 21.6818 19.7727C21.6818 19.0824 21.1222 18.5227 20.4318 18.5227C19.7415 18.5227 19.1818 19.0824 19.1818 19.7727C19.1818 20.4631 19.7415 21.0227 20.4318 21.0227Z"/><path fill="#34A853" d="M20.4318 16.5909C21.1222 16.5909 21.6818 16.0313 21.6818 15.3409C21.6818 14.6506 21.1222 14.0909 20.4318 14.0909C19.7415 14.0909 19.1818 14.6506 19.1818 15.3409C19.1818 16.0313 19.7415 16.5909 20.4318 16.5909Z"/><path fill="#34A853" d="M19.1818 19.7727H21.6818V15.3409H19.1818V19.7727Z"/><path fill="#FAB908" d="M16 12.6136C16.6904 12.6136 17.25 12.054 17.25 11.3636C17.25 10.6733 16.6904 10.1136 16 10.1136C15.3096 10.1136 14.75 10.6733 14.75 11.3636C14.75 12.054 15.3096 12.6136 16 12.6136Z"/><path fill="#FAB908" d="M16 19.8864C16.6904 19.8864 17.25 19.3267 17.25 18.6364C17.25 17.946 16.6904 17.3864 16 17.3864C15.3096 17.3864 14.75 17.946 14.75 18.6364C14.75 19.3267 15.3096 19.8864 16 19.8864Z"/></g><rect width="66" height="24" x="31" y="3" fill="#fff"/><path fill="#000" d="M54.6221 10.46V9.66455H51.9897V10.5522H53.5146L53.5103 10.6841C53.4927 11.5586 52.8335 12.1475 51.8667 12.1475C50.7373 12.1475 50.0298 11.2598 50.0298 9.81836C50.0298 8.39453 50.7241 7.51123 51.8315 7.51123C52.6445 7.51123 53.2114 7.91113 53.4399 8.63184H54.5693C54.3672 7.33545 53.2949 6.50049 51.8315 6.50049C50.0254 6.50049 48.8696 7.79688 48.8696 9.82715C48.8696 11.8838 50.0122 13.1582 51.8491 13.1582C53.541 13.1582 54.6221 12.1079 54.6221 10.46ZM57.9004 13.0967C59.3374 13.0967 60.2119 12.1562 60.2119 10.5962C60.2119 9.04053 59.333 8.0957 57.9004 8.0957C56.4722 8.0957 55.5889 9.04492 55.5889 10.5962C55.5889 12.1562 56.459 13.0967 57.9004 13.0967ZM57.9004 12.1826C57.1401 12.1826 56.7051 11.6025 56.7051 10.5962C56.7051 9.59424 57.1401 9.00977 57.9004 9.00977C58.6562 9.00977 59.0913 9.59424 59.0913 10.5962C59.0913 11.6025 58.6606 12.1826 57.9004 12.1826ZM63.3848 13.0967C64.8218 13.0967 65.6963 12.1562 65.6963 10.5962C65.6963 9.04053 64.8174 8.0957 63.3848 8.0957C61.9565 8.0957 61.0732 9.04492 61.0732 10.5962C61.0732 12.1562 61.9434 13.0967 63.3848 13.0967ZM63.3848 12.1826C62.6245 12.1826 62.1895 11.6025 62.1895 10.5962C62.1895 9.59424 62.6245 9.00977 63.3848 9.00977C64.1406 9.00977 64.5757 9.59424 64.5757 10.5962C64.5757 11.6025 64.145 12.1826 63.3848 12.1826ZM68.8604 12.042C68.1001 12.042 67.6694 11.4619 67.6694 10.5435C67.6694 9.625 68.1001 9.04053 68.8604 9.04053C69.6162 9.04053 70.0776 9.625 70.0776 10.5435C70.0776 11.4619 69.6206 12.042 68.8604 12.042ZM68.8604 14.8281C70.2622 14.8281 71.1499 14.1294 71.1499 13.0176V8.19238H70.0996V8.96143H70.0249C69.7612 8.43848 69.1899 8.11328 68.5352 8.11328C67.3091 8.11328 66.5488 9.07129 66.5488 10.5435C66.5488 11.9893 67.3047 12.9297 68.5176 12.9297C69.1855 12.9297 69.7085 12.6484 69.9854 12.1343H70.0601V13.0439C70.0601 13.646 69.625 13.9976 68.8779 13.9976C68.2803 13.9976 67.8936 13.7866 67.8232 13.457H66.729C66.8169 14.2832 67.6255 14.8281 68.8604 14.8281ZM72.5342 13H73.624V6.3335H72.5342V13ZM77.021 8.96143C77.6758 8.96143 78.1064 9.41846 78.1284 10.1304H75.8652C75.9136 9.42725 76.3706 8.96143 77.021 8.96143ZM78.1372 11.6772C77.979 12.0332 77.6055 12.231 77.0649 12.231C76.3486 12.231 75.8872 11.73 75.8608 10.9302V10.873H79.2183V10.5215C79.2183 9.00537 78.3965 8.0957 77.0254 8.0957C75.6323 8.0957 74.7666 9.06689 74.7666 10.6138C74.7666 12.1606 75.6191 13.0967 77.0342 13.0967C78.168 13.0967 78.9634 12.5518 79.1699 11.6772H78.1372ZM44.3916 17.6587V24H45.5254V21.9214H46.9009C48.1841 21.9214 49.0806 21.0601 49.0806 19.8032C49.0806 18.5244 48.2148 17.6587 46.9492 17.6587H44.3916ZM45.5254 18.6079H46.6504C47.4678 18.6079 47.9292 19.0254 47.9292 19.8032C47.9292 20.5591 47.4546 20.981 46.646 20.981H45.5254V18.6079ZM52.1611 24.0967C53.5981 24.0967 54.4727 23.1562 54.4727 21.5962C54.4727 20.0405 53.5938 19.0957 52.1611 19.0957C50.7329 19.0957 49.8496 20.0449 49.8496 21.5962C49.8496 23.1562 50.7197 24.0967 52.1611 24.0967ZM52.1611 23.1826C51.4009 23.1826 50.9658 22.6025 50.9658 21.5962C50.9658 20.5942 51.4009 20.0098 52.1611 20.0098C52.917 20.0098 53.3521 20.5942 53.3521 21.5962C53.3521 22.6025 52.9214 23.1826 52.1611 23.1826ZM57.3115 24.0791C57.9795 24.0791 58.5332 23.7671 58.8057 23.2397H58.8804V24H59.9351V17.3335H58.8452V19.957H58.7705C58.5156 19.4297 57.9707 19.1133 57.3115 19.1133C56.0986 19.1133 55.334 20.0713 55.334 21.5918C55.334 23.1211 56.0942 24.0791 57.3115 24.0791ZM57.6499 20.0405C58.397 20.0405 58.8584 20.6382 58.8584 21.5962C58.8584 22.563 58.4014 23.1519 57.6499 23.1519C56.9028 23.1519 56.4502 22.5674 56.4502 21.5962C56.4502 20.6294 56.9072 20.0405 57.6499 20.0405ZM65.4634 20.8096C65.3491 19.7988 64.6021 19.0957 63.3672 19.0957C61.9214 19.0957 61.0732 20.0229 61.0732 21.583C61.0732 23.165 61.9258 24.0967 63.3716 24.0967C64.5889 24.0967 65.3447 23.4199 65.4634 22.4136H64.4263C64.312 22.9146 63.9341 23.1826 63.3672 23.1826C62.6245 23.1826 62.1763 22.5938 62.1763 21.583C62.1763 20.5854 62.6201 20.0098 63.3672 20.0098C63.9648 20.0098 64.3252 20.3438 64.4263 20.8096H65.4634ZM68.1484 23.2222C67.665 23.2222 67.3179 22.9805 67.3179 22.5762C67.3179 22.1851 67.6035 21.9653 68.2144 21.9258L69.2998 21.8555V22.2378C69.2998 22.7959 68.8076 23.2222 68.1484 23.2222ZM67.8276 24.0791C68.4561 24.0791 68.9834 23.8066 69.2515 23.3408H69.3262V24H70.3765V20.7173C70.3765 19.6978 69.6821 19.0957 68.4473 19.0957C67.3047 19.0957 66.5093 19.6362 66.4214 20.4844H67.4497C67.5508 20.1592 67.8936 19.9834 68.3945 19.9834C68.9834 19.9834 69.2998 20.2471 69.2998 20.7173V21.1216L68.0605 21.1963C66.8916 21.2666 66.2368 21.7676 66.2368 22.6377C66.2368 23.5166 66.9004 24.0791 67.8276 24.0791ZM71.5806 20.5679C71.5806 21.293 72.0156 21.7192 72.9385 21.9302L73.791 22.1279C74.248 22.229 74.4546 22.4004 74.4546 22.6729C74.4546 23.0288 74.0723 23.2705 73.5229 23.2705C72.978 23.2705 72.6396 23.0596 72.5342 22.7036H71.4575C71.541 23.5781 72.2969 24.0967 73.4966 24.0967C74.6963 24.0967 75.5444 23.4814 75.5444 22.5586C75.5444 21.8511 75.1182 21.4556 74.1997 21.249L73.3516 21.0557C72.8682 20.9458 72.6396 20.7788 72.6396 20.5063C72.6396 20.1592 73.0132 19.9219 73.5098 19.9219C74.0195 19.9219 74.3403 20.1372 74.4194 20.4756H75.4434C75.3643 19.6011 74.6479 19.0957 73.5054 19.0957C72.3716 19.0957 71.5806 19.6978 71.5806 20.5679ZM76.9595 18.0146V19.2231H76.1992V20.0933H76.9595V22.7168C76.9595 23.6484 77.3989 24.022 78.502 24.022C78.7129 24.022 78.915 24 79.0732 23.9692V23.1167C78.9414 23.1299 78.8579 23.1387 78.7041 23.1387C78.2471 23.1387 78.0449 22.9277 78.0449 22.4531V20.0933H79.0732V19.2231H78.0449V18.0146H76.9595ZM79.9917 20.5679C79.9917 21.293 80.4268 21.7192 81.3496 21.9302L82.2021 22.1279C82.6592 22.229 82.8657 22.4004 82.8657 22.6729C82.8657 23.0288 82.4834 23.2705 81.9341 23.2705C81.3892 23.2705 81.0508 23.0596 80.9453 22.7036H79.8687C79.9521 23.5781 80.708 24.0967 81.9077 24.0967C83.1074 24.0967 83.9556 23.4814 83.9556 22.5586C83.9556 21.8511 83.5293 21.4556 82.6108 21.249L81.7627 21.0557C81.2793 20.9458 81.0508 20.7788 81.0508 20.5063C81.0508 20.1592 81.4243 19.9219 81.9209 19.9219C82.4307 19.9219 82.7515 20.1372 82.8306 20.4756H83.8545C83.7754 19.6011 83.0591 19.0957 81.9165 19.0957C80.7827 19.0957 79.9917 19.6978 79.9917 20.5679Z"/></g><defs><filter id="filter0_d" width="28" height="28" x="2" y="5" color-interpolation-filters="sRGB" filterUnits="userSpaceOnUse"><feFlood flood-opacity="0" result="BackgroundImageFix"/><feColorMatrix in="SourceAlpha" type="matrix" values="0 0 0 0 0 0 0 0 0 0 0 0 0 0 0 0 0 0 127 0"/><feOffset dy="4"/><feGaussianBlur stdDeviation="2"/><feColorMatrix type="matrix" values="0 0 0 0 0 0 0 0 0 0 0 0 0 0 0 0 0 0 0.25 0"/><feBlend in2="BackgroundImageFix" mode="normal" result="effect1_dropShadow"/><feBlend in="SourceGraphic" in2="effect1_dropShadow" mode="normal" result="shape"/></filter><clipPath id="clip0"><rect width="100" height="30" fill="#fff"/></clipPath></defs></svg>

<svg xmlns="http://www.w3.org/2000/svg" width="100" height="30" fill="none"><g clip-path="url(#clip0)"><path fill="#E6E6E6" d="M0 0H100V30H0z"/><g filter="url(#filter0_d)"><path fill="#FAB908" d="M14.75 11.364v7.272h2.5v-7.272h-2.5z"/><path fill="#0066D9" d="M7.25 15.568a1.25 1.25 0 1 0 0-2.5 1.25 1.25 0 0 0 0 2.5z"/><path fill="#0066D9" d="M7.25 16.932a1.25 1.25 0 1 0 0-2.5 1.25 1.25 0 0 0 0 2.5z"/><path fill="#0066D9" d="M8.5 14.318H6v1.364h2.5v-1.364z"/><path fill="#4285F4" d="M24.75 16.932a1.25 1.25 0 1 0 0-2.5 1.25 1.25 0 0 0 0 2.5z"/><path fill="#4285F4" d="M24.75 15.568a1.25 1.25 0 1 0 0-2.5 1.25 1.25 0 0 0 0 2.5z"/><path fill="#4285F4" d="M23.5 15.682H26v-1.364h-2.5v1.364z"/><path fill="#EA4335" d="M11.568 19.66a1.25 1.25 0 1 0 0-2.501 1.25 1.25 0 0 0 0 2.5z"/><path fill="#EA4335" d="M11.568 21.023a1.25 1.25 0 1 0 0-2.5 1.25 1.25 0 0 0 0 2.5z"/><path fill="#EA4335" d="M12.818 18.41h-2.5v1.363h2.5v-1.364zm-1.25-6.933a1.25 1.25 0 1 0 0-2.5 1.25 1.25 0 0 0 0 2.5zm0 4.432a1.25 1.25 0 1 0 0-2.5 1.25 1.25 0 0 0 0 2.5z"/><path fill="#EA4335" d="M12.818 10.227h-2.5v4.46h2.5v-4.46z"/><path fill="#34A853" d="M20.432 12.84a1.25 1.25 0 1 0 0-2.499 1.25 1.25 0 0 0 0 2.5z"/><path fill="#34A853" d="M20.432 11.477a1.25 1.25 0 1 0 0-2.5 1.25 1.25 0 0 0 0 2.5z"/><path fill="#34A853" d="M19.182 11.59h2.5v-1.363h-2.5v1.364z"/><path fill="#FAB908" d="M16 8.864a1.25 1.25 0 1 0 0-2.5 1.25 1.25 0 0 0 0 2.5z"/><path fill="#FAB908" d="M16 7.5A1.25 1.25 0 1 0 16 5a1.25 1.25 0 0 0 0 2.5z"/><path fill="#FAB908" d="M14.75 7.614h2.5V6.25h-2.5v1.364zM16 25a1.25 1.25 0 1 0 0-2.5 1.25 1.25 0 0 0 0 2.5z"/><path fill="#FAB908" d="M16 23.636a1.25 1.25 0 1 0 0-2.5 1.25 1.25 0 0 0 0 2.5z"/><path fill="#FAB908" d="M14.75 23.75h2.5v-1.364h-2.5v1.364z"/><path fill="#34A853" d="M20.432 21.023a1.25 1.25 0 1 0 0-2.5 1.25 1.25 0 0 0 0 2.5zm0-4.432a1.25 1.25 0 1 0 0-2.5 1.25 1.25 0 0 0 0 2.5z"/><path fill="#34A853" d="M19.182 19.773h2.5V15.34h-2.5v4.432z"/><path fill="#FAB908" d="M16 12.614a1.25 1.25 0 1 0 0-2.5 1.25 1.25 0 0 0 0 2.5zm0 7.272a1.25 1.25 0 1 0 0-2.5 1.25 1.25 0 0 0 0 2.5z"/></g><path fill="#fff" d="M31 3H97V27H31z"/><path fill="#000" d="M54.622 10.46v-.795H51.99v.887h1.525l-.005.132c-.017.875-.676 1.464-1.643 1.464-1.13 0-1.837-.888-1.837-2.33 0-1.423.694-2.307 1.801-2.307.813 0 1.38.4 1.609 1.12h1.13c-.203-1.296-1.275-2.13-2.739-2.13-1.806 0-2.961 1.296-2.961 3.326 0 2.057 1.142 3.331 2.98 3.331 1.691 0 2.772-1.05 2.772-2.698zm3.278 2.637c1.437 0 2.312-.94 2.312-2.5 0-1.556-.879-2.501-2.312-2.501-1.428 0-2.311.949-2.311 2.5 0 1.56.87 2.5 2.311 2.5zm0-.914c-.76 0-1.195-.58-1.195-1.587 0-1.002.435-1.586 1.195-1.586.756 0 1.191.584 1.191 1.586 0 1.006-.43 1.587-1.19 1.587zm5.485.914c1.437 0 2.311-.94 2.311-2.5 0-1.556-.879-2.501-2.311-2.501-1.428 0-2.312.949-2.312 2.5 0 1.56.87 2.5 2.312 2.5zm0-.914c-.76 0-1.195-.58-1.195-1.587 0-1.002.434-1.586 1.195-1.586.756 0 1.19.584 1.19 1.586 0 1.006-.43 1.587-1.19 1.587zm5.475-.141c-.76 0-1.19-.58-1.19-1.498 0-.919.43-1.503 1.19-1.503.756 0 1.218.584 1.218 1.502 0 .919-.457 1.499-1.218 1.499zm0 2.786c1.402 0 2.29-.699 2.29-1.81V8.192H70.1v.77h-.075c-.264-.524-.835-.849-1.49-.849-1.226 0-1.986.958-1.986 2.43 0 1.446.756 2.387 1.969 2.387.668 0 1.19-.282 1.467-.796h.075v.91c0 .602-.435.954-1.182.954-.598 0-.984-.211-1.055-.541H66.73c.088.826.897 1.371 2.131 1.371zM72.534 13h1.09V6.333h-1.09V13zm4.487-4.039c.655 0 1.085.457 1.107 1.17h-2.263c.049-.704.506-1.17 1.156-1.17zm1.116 2.716c-.158.356-.531.554-1.072.554-.716 0-1.178-.501-1.204-1.3v-.058h3.357v-.351c0-1.517-.822-2.426-2.193-2.426-1.393 0-2.258.97-2.258 2.518 0 1.547.852 2.483 2.267 2.483 1.134 0 1.93-.545 2.136-1.42h-1.033zM44.392 17.66V24h1.133v-2.079h1.376c1.283 0 2.18-.86 2.18-2.118 0-1.279-.866-2.144-2.132-2.144h-2.557zm1.133.949h1.125c.818 0 1.28.417 1.28 1.195 0 .756-.475 1.178-1.284 1.178h-1.12v-2.373zm6.636 5.489c1.437 0 2.312-.94 2.312-2.5 0-1.556-.88-2.501-2.312-2.501-1.428 0-2.311.949-2.311 2.5 0 1.56.87 2.5 2.311 2.5zm0-.914c-.76 0-1.195-.58-1.195-1.587 0-1.002.435-1.586 1.195-1.586.756 0 1.191.584 1.191 1.586 0 1.006-.43 1.587-1.19 1.587zm5.15.896c.669 0 1.222-.312 1.495-.84h.074V24h1.055v-6.666h-1.09v2.623h-.075c-.254-.527-.8-.844-1.459-.844-1.212 0-1.977.958-1.977 2.479 0 1.53.76 2.487 1.977 2.487zm.339-4.038c.747 0 1.208.597 1.208 1.555 0 .967-.457 1.556-1.208 1.556-.747 0-1.2-.585-1.2-1.556 0-.967.457-1.555 1.2-1.555zm7.813.769c-.114-1.011-.86-1.714-2.096-1.714-1.446 0-2.294.927-2.294 2.487 0 1.582.853 2.514 2.299 2.514 1.217 0 1.973-.677 2.091-1.683h-1.037c-.114.5-.492.769-1.059.769-.742 0-1.19-.59-1.19-1.6 0-.998.443-1.573 1.19-1.573.598 0 .958.334 1.06.8h1.036zm2.685 2.412c-.483 0-.83-.242-.83-.646 0-.39.285-.61.896-.65l1.086-.07v.382c0 .558-.492.984-1.152.984zm-.32.857c.628 0 1.155-.272 1.423-.738h.075V24h1.05v-3.283c0-1.02-.694-1.621-1.929-1.621-1.142 0-1.938.54-2.026 1.388h1.029c.1-.325.444-.5.944-.5.59 0 .906.263.906.733v.405l-1.24.074c-1.168.07-1.823.572-1.823 1.442 0 .879.663 1.441 1.59 1.441zm3.753-3.511c0 .725.435 1.151 1.358 1.362l.852.198c.457.101.664.272.664.545 0 .356-.383.598-.932.598-.545 0-.883-.211-.989-.567h-1.077c.084.874.84 1.393 2.04 1.393 1.2 0 2.047-.616 2.047-1.538 0-.708-.426-1.103-1.344-1.31l-.848-.193c-.484-.11-.712-.277-.712-.55 0-.347.373-.584.87-.584.51 0 .83.215.91.554h1.023c-.079-.875-.795-1.38-1.938-1.38-1.133 0-1.924.602-1.924 1.472zm5.379-2.553v1.208h-.76v.87h.76v2.624c0 .931.439 1.305 1.542 1.305.21 0 .413-.022.571-.053v-.852c-.132.013-.215.022-.369.022-.457 0-.66-.211-.66-.686v-2.36h1.03v-.87h-1.03v-1.208H76.96zm3.032 2.553c0 .725.435 1.151 1.358 1.362l.852.198c.457.101.664.272.664.545 0 .356-.383.598-.932.598-.545 0-.883-.211-.989-.567H79.87c.083.874.839 1.393 2.039 1.393 1.2 0 2.048-.616 2.048-1.538 0-.708-.427-1.103-1.345-1.31l-.848-.193c-.484-.11-.712-.277-.712-.55 0-.347.373-.584.87-.584.51 0 .83.215.91.554h1.023c-.079-.875-.795-1.38-1.938-1.38-1.133 0-1.924.602-1.924 1.472z"/></g><defs><filter id="filter0_d" width="28" height="28" x="2" y="5" color-interpolation-filters="sRGB" filterUnits="userSpaceOnUse"><feFlood flood-opacity="0" result="BackgroundImageFix"/><feColorMatrix in="SourceAlpha" values="0 0 0 0 0 0 0 0 0 0 0 0 0 0 0 0 0 0 127 0"/><feOffset dy="4"/><feGaussianBlur stdDeviation="2"/><feColorMatrix values="0 0 0 0 0 0 0 0 0 0 0 0 0 0 0 0 0 0 0.25 0"/><feBlend in2="BackgroundImageFix" result="effect1_dropShadow"/><feBlend in="SourceGraphic" in2="effect1_dropShadow" result="shape"/></filter><clipPath id="clip0"><path fill="#fff" d="M0 0H100V30H0z"/></clipPath></defs></svg>
